!!!OTL: "Vergaenglichkeit der Liebe" SO HAT GOTT DIE WELT GESCHAFFEN
!!!ARE: Europa, Mitteleuropa, Deutschland, Niederrhein
!!!SCT: Z1155
!!!YEM: Copyright 1995, estate of Helmut Schaffrath.
**kern
*ICvox
*Ivox
*M4/4
*k[f#]
*e:
{4gn
8ccn
8a
=1
2gn
4e
4e
=2
4fn
4a
4a
4gn
=3
2gn}
{4gn
8ccn
8a
=4
2gn
4e
4e
=5
4fn
4a
4a
4gn
=6
2gn}
{8gn
8a
8b
8gn
=7
2ccn
2ddn
=8
8ccn
8b
4a
4gn}
{8ccn
8a
=9
4gn
8gn
8fn
2e
=10
2gn
8gn
8fn
8dn
8fn
=11
2e}
{8gn
8a
8b
8gn
=12
2ccn
2ddn
=13
8ccn
8b
4a
4gn}
{8ccn
8a
=14
4gn
8gn
8fn
2e
=15
2gn
8gn
8fn
8dn
8fn
=16
2e}
==
!!!AGN: Liebes - Lied, Tod
!!!ONB: ESAC (Essen Associative Code) Database: ZUCCAL
!!!AMT: simple quadruple
!!!AIN: vox
!!!EED: Helmut Schaffrath
!!!EEV: 1.0
*-
